X:1
T:Harting, 87.87
T:Harting, 87.87
T:Frederick Alfred John Hervey, 1889
T:Public Domain Courtesy of the Cyber Hymnal™
C:Frederick Alfred John Hervey, 1889
Z:Public Domain
Z:Courtesy of the Cyber Hymnal™
%%score ( 1 2 ) ( 3 4 )
L:1/8
Q:1/4=113
M:4/4
K:F
V:1 treble 
V:2 treble 
V:3 bass 
V:4 bass 
V:1
 [Fc]2 [FA]2 [Fd]2 [FG]2 | [FA]2 [FB]2 [FA]2 [EG]2 | F2 [FA]2 G2 [Gc]2 | [Af]2 [Gf]2 [Ge]4 | %4
 [Ff]2 [Fd]2 [Fd]2 [^Fc]2 | [GB]2 [Gd]2 [Gc]2 [GB]2 | [GA]2 [Ge]2 [Ff]2 [DA]2 | [DB]2 [EG]2 F4 |] %8
V:2
 x8 | x8 | F2 G2 x4 | x8 | x8 | x8 | x8 | x4 F4 |] %8
V:3
 [F,A,]2 [F,C]2 B,2 [B,D]2 | [A,D]2 [G,D]2 C2 [C,B,]2 | [F,A,]2 [F,C]2 [F,C]2 [E,C]2 | %3
 [D,C]2 [G,=B,]2 [C,C]4 | [A,C]2 [A,_E]2 [B,D]2 [A,D]2 | D2 z [E,C]2 [D,D]2 x | %6
 [^C,E]2 [A,,^C]2 [D,A,]2 (D=C) | [G,B,]2 [C,B,]2 [F,A,]4 |] %8
V:4
 x4 B,2 x2 | x4 C2 x2 | x8 | x8 | x8 | G,3 (B,2 F,) x2 | x6 F,2 | x8 |] %8

